packages/ui-icons/svg/Solid/peer-graded.svg

<svg viewBox="0 0 1920 1920" version="1.1" xmlns="http://www.w3.org/2000/svg">
    <path d="M716.582453,133 C929.35232,133 1102.43454,306.082223 1102.43454,518.85209 L1102.43454,518.85209 L1102.43454,629.095544 C1102.43454,745.843362 1049.2972,849.361966 966.945338,920.248507 C1026.69729,927.414332 1086.22876,936.454295 1145.209,948.801562 C1312.00735,983.969224 1433.16491,1143.05053 1433.16491,1327.1571 L1433.16491,1327.1571 L1433.16491,1538.93477 L1410.67524,1555.47129 C1289.73817,1644.21727 1043.45429,1787.86449 715.700505,1787.86449 C698.502526,1787.86449 680.863574,1787.42352 663.224621,1786.65181 C374.386771,1773.09187 155.333027,1653.47772 22.3794212,1555.36105 L22.3794212,1555.36105 L0,1538.82453 L0,1327.04685 C0,1142.94028 121.2678,983.85898 288.17639,948.691318 C346.825907,936.454295 406.136886,926.973358 465.668351,919.69729 C383.647221,848.920992 330.730363,745.622876 330.730363,629.095544 L330.730363,629.095544 L330.730363,518.85209 C330.730363,306.082223 503.812586,133 716.582453,133 Z M625.080386,463.730363 C527.404685,463.730363 508.222324,535.719339 440.973817,562.949472 L440.973817,562.949472 L440.973817,629.095544 C440.973817,781.011024 564.556729,904.70418 716.582453,904.70418 C868.608176,904.70418 992.191089,781.011024 992.191089,629.095544 L992.191089,629.095544 L992.191089,518.85209 C992.191089,516.316491 991.529628,513.891135 991.419384,511.245292 C958.566835,541.011024 929.242076,573.973817 864.308682,573.973817 C744.143316,573.973817 744.143316,463.730363 625.080386,463.730363 Z M1842.05788,307.614607 L1488.28663,661.385852 L1330.85898,503.958199 L1252.91686,581.900322 L1488.28663,817.270096 L1920,385.556729 L1842.05788,307.614607 Z" stroke="none" stroke-width="1" fill-rule="evenodd"/>
</svg>

<svg viewBox="0 0 1920 1920" version="1.1" xmlns="http://www.w3.org/2000/svg">
    <path d="M1145.209 948.802c166.798 35.167 287.956 194.249 287.956 378.355v211.778l-22.49 16.536c-120.937 88.746-367.22 232.393-694.974 232.393-17.198 0-34.837-.44-52.476-1.212-288.838-13.56-507.892-133.174-640.846-231.291L0 1538.825v-211.778C0 1142.94 121.268 983.859 288.176 948.69c58.65-12.237 117.96-21.718 177.492-28.994-82.02-70.776-134.938-174.074-134.938-290.601V518.852C330.73 306.082 503.813 133 716.582 133c212.77 0 385.853 173.082 385.853 385.852v110.244c0 116.747-53.138 220.266-135.49 291.153 59.752 7.165 119.284 16.205 178.264 28.553zm-428.627-44.098c152.026 0 275.61-123.693 275.61-275.608V518.852c0-2.536-.662-4.96-.773-7.607-32.852 29.766-62.177 62.729-127.11 62.729-120.166 0-120.166-110.244-239.229-110.244-97.675 0-116.858 71.99-184.106 99.22v66.146c0 151.915 123.583 275.608 275.608 275.608zm1125.476-597.09l-353.771 353.772-157.428-157.428-77.942 77.942 235.37 235.37L1920 385.557l-77.942-77.942z" stroke="none" stroke-width="1" fill-rule="evenodd"/>
</svg>
